X:1
T:Title
%%score { 1 | 2 }
L:1/8
Q:1/4=100
M:6/8
K:F
V:1 treble nm="Grand Piano"
V:2 bass 
V:1
 c2 c c2 d | c3 A3 | F2 F [EG]2 [EG] | A6 | c2 c c2 d | c3 A3 | G2 G A2 G | [EG]6 | %8
w: Robert~Lowry * * *||||||||
 [GB]2 [FA] [EG]2 [EG] | [FA]3 [Fc]3 | [Fd]2 [Fd] [Fc]2 [CFA] | [CEG]6 | %12
w: ||||
 [CFA]2 [CGB] [CAc]2 [_EFA] |[M:15/16] [DFB]3 [Fd]3/2- [Fd]3 |[M:3/4] [Fc]2 [FA] [FA]2 [B,EG] | %15
w: |||
 [A,F]6 | [CEG]2 [CFA] [CGB]3 | [CFA]2 [CGB] [FAc]3 | [FBd]2 [FBd] [FAc]2 [CFA] | [CEG]6 | %20
w: |||||
 [CFA]2 [CGB] [CAc]2 [_EFA] |[M:15/16] [DFB]3 [Fd]3/2- [Fd]3 |[M:3/4] [Fc]2 [FA] [FA]2 [EG] | F6 |] %24
w: ||||
V:2
 [F,A,F]2 [F,A,F] [F,A,F]2 [F,B,F] | [F,A,F]3 [F,CF]3 | [F,A,]2 [F,A,] [C,C]2 [C,C] | [F,CF]6 | %4
 [F,A,F]2 [F,A,F] [F,A,F]2 [F,B,F] | [F,A,F]3 [F,CF]3 | [G,CE]2 [G,CE] [G,=B,F]2 [G,B,F] | [C,C]6 | %8
 [C,C]2 [C,C] [C,C]2 [C,C] | [F,C]3 [F,A,]3 | [B,,B,]2 [D,B,] [F,A,]2 F, | C,6 | F,2 F, F,2 F, | %13
[M:15/16] B,,3 [B,,B,]3/2- [B,,B,]3 |[M:3/4] [C,A,]2 [C,C] [C,C]2 C, | F,6 | C,2 C, C,3 | %17
 F,2 F, F,3 | B,2 B, F,2 F, | C,6 | F,2 F, F,2 F, |[M:15/16] B,,3 [B,,B,]3/2- [B,,B,]3 | %22
[M:3/4] [C,A,]2 [C,C] [C,C]2 [C,B,] | [F,A,]6 |] %24

